!!!!SEGMENT: pl-wn--mus-iii-105-719-2--008_zelenski-wladyslaw--25-preludyi-op-38-24-andante-sostenuto.krn
!!!cenid: 18xx:3757
!!!COM: Żeleński, Władysław
!!!COM-rismID: pe41024455
!!!CDT: 1837/07/06-1921/01/23
!!!CNT: Polish
!!!GTL: 25 preludyi op. 38
!!!OTL: 24. Andante sostenuto
!!!PDT: 1881
!!!AGN:
!!!SMS-siglum: PL-Wn
!!!SMS-shelfmark: Mus.III.105.719/2
!!!SMS-shelfwork: 008 G
!!!SMS-variant:
!!!SMS-altvar:
!!!NIFC-rismSourceID:
!!!NIFC-rismChildID:
!!!NIFC-islandoraID: none
!!!URL-pdf-islandora:
!!!URL-scan: https://polona.pl/item/25-preludyi-2-3-i-4-glosowych-na-organ-lub-fisharmonike-do-uzytku-organistow-i,ODE1NjEwNDA/2 @EN{Scan on Polona} @PL{Skany w portalu Polona}
!!!ONB-nifc:
!!!AIN: 2 organ
!!!key: b-
**kern	**fing	**dynam	**kern	**fing	**dynam
*part2	*part2	*part2	*part1	*part1	*part1
*staff2	*	*	*staff1	*	*
*I"Organo	*	*	*I"Organo	*	*
*I'org	*	*	*I'org	*	*
*ICklav	*	*	*ICklav	*	*
*Iorgan	*	*	*Iorgan	*	*
*clefF4	*	*	*clefG2	*	*
*k[b-e-a-d-g-]	*	*	*k[b-e-a-d-g-]	*	*
*b-:	*	*	*b-:	*	*
*M4/4	*	*	*M4/4	*	*
*met(c)	*	*	*met(c)	*	*
=1	=1	=1	=1	=1	=1
*xywh-12:527,369,5381,1148	*	*	*xywh-12:527,369,5381,1148	*	*
!	!	!	!LO:TX:B:t=Andante sostenuto.	!	!
!	!	!	!LO:TX:i:a:t=1.) na drugiej klawiaturze łagodnie; od taktu 9 można zmienić trochę koloryt. / Zweites Manual recht zart, von Takt 9 kann die Farbung etwas gewechselt werden.	!	!
[1BB-	2	.	4r	.	pp
.	.	.	(4B-/ 4d-	2 3	.
.	.	.	4c/ 4e-	1 4	.
.	.	.	4d-/ 4f	2 5	.
=2	=2	=2	=2	=2	=2
*	*	*	*^	*	*
4BB-/]	.	.	2.g-/	1c 1e-	1 3 4	.
(4BB-/	.	.	.	.	.	.
(2AAn/)	.	.	.	.	.	.
.	.	.	4f/)	.	5	.
=3	=3	=3	=3	=3	=3	=3
[1BB-)	.	.	4r	2ryy	.	.
.	.	.	4d-/ 4f	.	2 4	.
!	!	!	!LO:TX:t=P:problem= przy 4g- kasownik dopisany ołówkiem	!	!	!
.	.	.	(4en/ 4g-	2c\	1 3 5-4	.
.	.	.	4e-X/ 4an	.	2 5	.
=4	=4	=4	=4	=4	=4	=4
*^	*	*	*	*	*	*
2.ryy	4BB-\]	.	<	2.b-/	2.d-\ 2.f	1 2 4	.
.	8B-\L	2	.	.	.	.	.
.	8A-\J	3	.	.	.	.	.
.	4Gn\	4	.	.	.	.	.
4c/	4G-X\	3	.	8cc/L	4en\	1 5	.
.	.	.	.	8b-/J	.	4	.
=5	=5	=5	=5	=5	=5	=5	=5
[1B-	4F\	4 2	.	2.dd-/	4f\	2	.
.	4En\	5	.	.	4g-\	3	.
.	4F\	4	.	.	4f\	2	.
.	4G-\	3	.	8cc/L	4f-X\	1 4	.
.	.	.	.	8b-/J	.	3	.
=6	=6	=6	=6	=6	=6	=6	=6
1B-_	4Gn\	4	.	2.dd-/	4e-\	2 5	.
.	8A-\L	3	.	.	4en\	1	.
.	8G-X\J	4	.	.	.	.	.
.	4F\	5	.	.	4f\	2-1	.
.	4En\	4	[	8cc/L	4g-\	2 4	.
.	.	.	.	8b-/J	.	3	.
=7	=7	=7	=7	=7	=7	=7	=7
(4B-/]	1F	3	>	4dd-/	4f\	1 5	.
2d-/	.	.	.	8cc/L	2en\	2-1 5	.
.	.	.	.	8b-/J	.	4	.
.	.	.	.	4gn/	.	3	.
4c/	.	.	.	4an/	4e\	2 4	.
=8	=8	=8	=8	=8	=8	=8	=8
[2B-/	[2BB-\	.	.	4b-/	4d-\	1 5	.
.	.	.	.	8g-/L	4c\	4	.
.	.	.	.	8e-/J	.	3	.
8B-/])	8BB-\L]	.	.	8f/)	8d-\	2 4	.
8r	(>8G-\	2	.	8r	8ryy	.	.
4r	8F\	1	.	4r	4ryy	.	.
.	8D-\J	2	.	.	.	.	.
*v	*v	*	*	*	*	*	*
*	*	*	*v	*v	*	*
!!LO:LB:g=original	!	!	!	!	!
=9	=9	=9	=9	=9	=9
*xywh-12:532,1456,5342,873	*	*	*xywh-12:532,1456,5342,873	*	*
[1BB-	3	]	4r	.	.
.	.	.	4B-/ (>4d-	.	.
.	.	.	4c/ 4e-	.	.
.	.	.	4d-/ 4f	.	.
=10	=10	=10	=10	=10	=10
*	*	*	*^	*	*
4BB-/]	.	.	2.g-/	2c\ 2e-	.	<
4AAn/	.	.	.	.	.	.
2AA-X/	.	.	.	2c-X\ 2dn	1 2	.
.	.	.	4f/	.	3	[
=11	=11	=11	=11	=11	=11	=11
*^	*	*	*	*^	*	*
4GG-/)	2ryy	4	.	2b-/	2B-\	[<1e-	.	<
4G-\	.	3	.	.	.	.	.	.
4c-X/	2F\	5	.	4a-/	2ryy	.	2-1 3	.
8B-/L	.	.	.	8b-/L	.	.	.	.
8A-/J	.	.	.	8cc-X/J)	.	.	.	.
*	*	*	*	*	*v	*v	*	*
=12	=12	=12	=12	=12	=12	=12	=12
([1B-	4B-\	2	.	(2f/	4e-\]	3	.
.	4A-\	.	.	.	8cn\L	2	.
.	.	.	.	.	8dn\J	1	.
.	4G-\	.	.	4b-/	4e-\	2 5	.
.	4F\	.	.	8ccn/L	4a-\	2 4	.
.	.	.	.	8ddn/J	.	5	.
=13	=13	=13	=13	=13	=13	=13	=13
4B-/]	4E-\	4	.	4.ee-/	2g-\	4	.
4B--/	4C\	5 1	.	.	.	.	.
.	.	.	.	8een/	.	4	.
2A-/	4D-\	4-5 2	.	8ff/L	4f\	1 5	.
.	.	.	.	8ee-X/	.	4	.
.	4F\	4	.	8dd-/	[4a-\	2 3	.
.	.	.	.	8cc-X/J	.	5	.
=14	=14	=14	=14	=14	=14	=14	=14
1B-	2.G-\	3	.	2.b-/	4a-\]	3 4	.
.	.	.	.	.	8g-\L	.	.
.	.	.	.	.	8f\J	.	.
.	.	.	.	.	4e-\	2	.
.	4Gn\	4 1-2	.	8dd-/L	4en\	1	.
.	.	.	.	8b-/J	.	.	.
=15	=15	=15	=15	=15	=15	=15	=15
*	*	*	*	*	*^	*	*
4d-/)	2A-\	3-1	.	4a-/)	4f\	4ryy	.	>
2ryy	.	.	.	8b-/L	4dn\	(2B-/	5	.
.	.	.	.	8f/J	.	.	3	.
.	2AA-\	.	.	4g-/	4e-\	.	2 5	.
8A-/L	.	.	.	8f/L	4c\	4ryy	4	.
8G-/J	.	.	.	8e-/J	.	.	3	.
*	*	*	*	*	*v	*v	*	*
=16	=16	=16	=16	=16	=16	=16	=16
*ped	*	*	*	*	*	*	*
!	!	!	!	!LO:TX:a:i:t=2.) na pierwszej klawiaturze / Erstes Manual.	!	!	!
4F/)	(2D-\	.	.	4d-/	4d-\	2	]
!	!	!	!	!LO:TX:a:i:t=poco piu	!	!	!
4r	.	.	.	4r	4ryy	.	.
2r	2B-\	.	.	2r	2ryy	.	.
!!LO:LB:g=original	!	!	!	!	!	!	!
=17	=17	=17	=17	=17	=17	=17	=17
*xywh-12:555,2273,5286,873	*xywh-12:555,2273,5286,873	*	*	*xywh-12:555,2273,5286,873	*xywh-12:555,2273,5286,873	*	*
!	!	!	!	!LO:TX:a:i:t=mosso.	!	!	!
1r	4Gn\	3	.	1r	1r	.	.
.	4A-\	2	.	.	.	.	.
.	4C\	5	.	.	.	.	.
.	4Dn\	4	.	.	.	.	.
*v	*v	*	*	*	*	*	*
=18	=18	=18	=18	=18	=18	=18
*	*	*	*	*^	*	*
8E-\L)	3 1	.	1r	1r	(>2G</	.	.
8F\	1	.	.	.	.	.	.
8E-\	2	.	.	.	.	.	.
8D-\J	3	.	.	.	.	.	.
8C\L	5	.	.	.	2e-</	.	.
8D-\	2	.	.	.	.	.	.
8C\	1	.	.	.	.	.	.
8BB-\J	.	.	.	.	.	.	.
=19	=19	=19	=19	=19	=19	=19	=19
8AAn\L	3	.	1r	1r	4c</	.	.
8FF\	.	.	.	.	.	.	.
8BB-\	4	.	.	.	4d-</	.	.
8C\J	1	.	.	.	.	.	.
8D-\L	2 1	.	.	.	4F</	.	.
8BB-\	4	.	.	.	.	.	.
8E-\	1 2	.	.	.	4Gn</	.	.
8D-\J	2	.	.	.	.	.	.
=20	=20	=20	=20	=20	=20	=20	=20
4C\	3 3	.	1r	1r	2A-</)	.	.
2F\	1-3	.	.	.	.	.	.
.	.	.	.	.	4Gn</	1	.
[4En\	.	.	.	.	8A-</L	4 2	.
.	.	.	.	.	8B-</J	1	.
*	*	*	*	*v	*v	*	*
=21	=21	=21	=21	=21	=21	=21
*^	*	*	*	*	*	*
[2A-/	4E\]	2 1	.	1r	(>2c\	.	.
.	8F\L	3	.	.	.	.	.
.	8Gn\J	1	.	.	.	.	.
8A-/L]	4F\	3 5	.	.	2a-\	.	.
8Gn/	.	1	.	.	.	.	.
8A-/	4E-X\	4 2	.	.	.	.	.
8B-/J	.	1	.	.	.	.	.
=22	=22	=22	=22	=22	=22	=22	=22
4c-X/	4Dn\	1 4	.	1r	4f\	.	.
*ped	*	*	*	*	*	*	*
8B-/L	(2E-\	4-3 2 5	.	.	4g-\	.	.
8A-/J	.	1	.	.	.	.	.
8G-/L	.	2 2	.	.	4B-\	.	.
8F/	.	2	.	.	.	.	.
8A-/	4AA-\	1 1	.	.	4cn\)	.	.
8G-/J	.	2	.	.	.	.	.
=23	=23	=23	=23	=23	=23	=23	=23
*Xped	*	*	*	*	*	*	*
2F/	2BB-\)	1 2 3	.	(2f/	8d-\L	.	.
.	.	.	.	.	8c\	1	.
.	.	.	.	.	8d-\	2	.
.	.	.	.	.	8e-\J	1	.
4B-/	2r	.	.	2dd-/)	8f\L	2 5	.
.	.	.	.	.	8en\	1	.
8A-/L	.	.	.	.	8f\	2	.
8Gn/J	.	.	.	.	8gn\J	1	.
!!LO:LB:g=original	!	!	!	!	!	!	!
=24	=24	=24	=24	=24	=24	=24	=24
*xywh-12:549,3080,5437,1159	*xywh-12:549,3080,5437,1159	*	*	*xywh-12:549,3080,5437,1159	*xywh-12:549,3080,5437,1159	*	*
4F/	1r	.	.	4bn/	8a-\L	3	.
.	.	.	.	.	8gn\	2	.
2A-/	.	2	.	4cc/	8f\	1	.
.	.	.	.	.	8d-\J	2	.
.	.	.	.	4en/	4.c\	1-2	.
4Dn/	.	5	.	4f/	.	.	.
.	.	.	.	.	8Bn\	1	.
=25	=25	=25	=25	=25	=25	=25	=25
4E-/	1r	4	.	1a-	[2c\	.	.
4En/	.	3	.	.	.	.	.
4F/	.	1	.	.	8c\L]	.	.
.	.	.	.	.	8Bn\	.	.
4G-/	.	2	.	.	8c\	.	.
.	.	.	.	.	8dn\J	1	.
=26	=26	=26	=26	=26	=26	=26	=26
4Gn/	1r	1	.	4gn/	4.e-\	2 3	.
[4A-/	.	2	.	4cc/	.	5	.
.	.	.	.	.	8en\	1	.
8A-/L]	.	.	.	2dd-/	4.f\	2 4	.
8An/	.	.	.	.	.	.	.
8B-/	.	3	.	.	.	.	.
8Bn/J	.	2	.	.	8g\	1	.
=27	=27	=27	=27	=27	=27	=27	=27
8c/L	1r	1	.	4cc/	2.a-\	3	.
8e-/	.	2	.	.	.	.	.
8d-/	.	3	.	4ff/	.	5	.
8c/J	.	4	.	.	.	.	.
4B-/	.	5	.	4dd-/	.	4	.
8e-/L	.	2	.	4b-/	4gn\	3	.
8d-/J	.	3	.	.	.	.	.
=28	=28	=28	=28	=28	=28	=28	=28
*ped	*	*	*	*	*	*	*
4r	2AA-\	5	.	(4.cc/	[2c\	5	.
(4E-/	.	3	.	.	.	.	.
.	.	.	.	8b-/	.	4	.
[2A-/	2F\	2 1	.	2a-/	8c\L]	3-5	.
.	.	.	.	.	8e-\	2	.
.	.	.	.	.	8dn\	1	.
.	.	.	.	.	8c\J	2	.
=29	=29	=29	=29	=29	=29	=29	=29
4A-/]	4Dn\	3	.	8a-/L	[2B-\	1	.
.	.	.	.	8f/	.	.	.
4Gn/)	4E-\	2	.	8e-/	.	.	.
.	.	.	.	8dn/J	.	.	.
2r	4GGn\	5	.	4e-/)	4B-\]	.	.
.	4AAn\	4	.	4r	4c\	2	.
=30	=30	=30	=30	=30	=30	=30	=30
4r	2BB-\	5	.	(4.dd-/	[2d-\	5	.
(4F/	.	.	.	.	.	.	.
.	.	.	.	8cc/	.	5	.
[2B-/	2G-X\	.	.	2b-/	8d-\L]	4-5	.
.	.	.	.	.	8f\	.	.
.	.	.	.	.	8e-\	.	.
.	.	.	.	.	8d-\J	.	.
!!LO:PB:g=original	!	!	!	!	!	!	!
=31	=31	=31	=31	=31	=31	=31	=31
*xywh-13:297,352,5387,1164	*xywh-13:297,352,5387,1164	*	*	*xywh-13:297,352,5387,1164	*xywh-13:297,352,5387,1164	*	*
4B-/]	4En\	.	.	8b-/L	[2c\	.	.
.	.	.	.	8g-/	.	.	.
4An/	4F\	.	.	8f/	.	.	.
.	.	.	.	8en/J	.	.	.
2r	4AAn\	.	.	4f/)	4c\]	.	.
.	4BBn\)	.	.	4r	4dn\	.	.
=32	=32	=32	=32	=32	=32	=32	=32
4r	(>2C\	.	.	(4.ee-/	[2e-\	.	.
4Gn/	.	.	.	.	.	.	.
.	.	.	.	8ddn/	.	.	.
[2c/	2A-\	.	.	[2cc/	8e-\L]	.	.
.	.	.	.	.	8gn\	.	.
.	.	.	.	.	8f\	.	.
.	.	.	.	.	8e-\J	.	.
=33	=33	=33	=33	=33	=33	=33	=33
4c/]	4F#X\	.	.	8cc/L]	[2dn\	.	.
.	.	.	.	8a-/	.	.	.
4Bn/	4Gn\	.	.	8gn/	.	.	.
.	.	.	.	8f#X/J)	.	.	.
2r	4BBn\	.	.	4g/	8d\L]	5	.
.	.	.	.	.	8fn\	4	.
.	4C\)	.	.	4r	8e-\	3	.
.	.	.	.	.	8c\J	2	.
=34	=34	=34	=34	=34	=34	=34	=34
1r	(2G-X\	2	.	4r	8An\L	1	.
.	.	.	.	.	8B-\	2	.
.	.	.	.	(4e-/	8Bn\	1 3	.
.	.	.	.	.	8c\J	2	.
.	2BB-\	5	.	[2a-/	8dn\L	1	.
.	.	.	.	.	8e-\	2	.
.	.	.	.	.	8en\	3	.
.	.	.	.	.	8f\J	4	.
=35	=35	=35	=35	=35	=35	=35	=35
1r	2E-\	.	.	4a-/]	8B-\L	2	.
.	.	.	.	.	8c\	1	.
.	.	.	.	4gn/	8d-X\	2 4	.
.	.	.	.	.	8dn\J	1	.
.	2GG-\)	.	.	4cc/	8e-\L	2 5	.
.	.	.	.	.	8d\	1	.
.	.	.	.	4b-/	8e-\	2 4	.
.	.	.	.	.	8en\J	1	.
=36	=36	=36	=36	=36	=36	=36	=36
8r	[1FF	.	.	4an/)	4f\	2 3	.
(8C/L	.	1	.	.	.	.	.
8D-/	.	2	.	4r	4ryy	.	.
8C/J)	.	1	.	.	.	.	.
!	!	!	!	!LO:TX:a:i:t=3.) prawa ręka na drugiej klawiaturze / Die rechte Hand auf dem zweiten Manuale.	!	!	!
!	!	!	!	!	!	!	!LO:DY:a
8r	.	.	.	(2g-/ 2B-	2B-/yy	2 5	p
(8D-/L	.	2	.	.	.	.	.
8E-/	.	1	.	.	.	.	.
8D-/J)	.	2	.	.	.	.	.
*	*	*	*	*v	*v	*	*
=37	=37	=37	=37	=37	=37	=37
8r	2FF\]	.	.	2An/ 2f	1 5	.
(8C/L	.	1	.	.	.	.
8D-/	.	2	.	.	.	.
8BBn/J	.	3	.	.	.	.
2C/)	8r	1	.	2B-/ 2en	.	.
.	(>8GG-\L	.	.	.	.	.
.	8AA-\	.	.	.	.	.
.	8GG-\J)	.	.	.	.	.
!!LO:LB:g=original	!	!	!	!	!	!
=38	=38	=38	=38	=38	=38	=38
*xywh-13:230,1310,5264,884	*xywh-13:230,1310,5264,884	*	*	*xywh-13:230,1310,5264,884	*	*
8r	[1FF	.	.	2An/) 2f	.	.
(8C/L	.	1	.	.	.	.
8D-/	.	2	.	.	.	.
8C/J)	.	.	.	.	.	.
8r	.	.	.	(2c-X/ 2a-X	1 5	.
(8Dn/L	.	1	.	.	.	.
8C#X/	.	.	.	.	.	.
8D/J)	.	.	.	.	.	.
=39	=39	=39	=39	=39	=39	=39
*	*	*	*	*^	*	*
8r	1FF_	.	.	2gn/	1B-	5	.
(8E-/L	.	2	.	.	.	.	.
8Dn/	.	.	.	.	.	.	.
8E-/J)	.	.	.	.	.	.	.
8r	.	.	.	2g-X/	.	4	.
(8En/L	.	1	.	.	.	.	.
8D#X/	.	.	.	.	.	.	.
8E/J)	.	.	.	.	.	.	.
=40	=40	=40	=40	=40	=40	=40	=40
!	!	!	!	!LO:TX:b:i:t=riten.	!	!	!
8r	2FF\]	.	.	4f/	4An\	5 1	.
(8C/L	.	1	.	.	.	.	.
8D-/	.	.	.	4en/	4B-\	2 5	.
8C/J)	.	.	.	.	.	.	.
8r	8FF\	.	.	4e-X/	4A\	1 4	.
(8F/L	8r	1	.	.	.	.	.
8G-X/	4r	.	.	4d-/	4B-\	2 3	>
8F/J)	.	.	.	.	.	.	.
=41	=41	=41	=41	=41	=41	=41	=41
1r	8r	.	.	1c	2.B-\	.	.
.	(>8FF\L	4	.	.	.	.	.
.	8GG-X\	3	.	.	.	.	.
.	8EEn\J	5	.	.	.	.	.
.	2FF\)	.	.	.	.	.	.
.	.	.	.	.	4An\)	.	]
*v	*v	*	*	*	*	*	*
*	*	*	*v	*v	*	*
=42	=42	=42	=42	=42	=42
[1BB-	2	.	4r	.	pp
!	!	!	!LO:TX:a:i:t=4.) na pierwszej klawiaturze łagodnie. / Erstes Manual recht zart.	!	!
!	!	!	!LO:TX:a:B:t=Tempo I.	!	!
.	.	.	(4B-/ 4d-	.	.
.	.	.	4c/ 4e-	.	.
.	.	.	4d-/ 4f	.	.
=43	=43	=43	=43	=43	=43
*	*	*	*^	*	*
4BB-/]	.	.	2.g-/	1c 1e-	.	.
(4BB-/	.	.	.	.	.	.
(2AAn/)	.	.	.	.	.	.
.	.	.	4f/)	.	.	.
=44	=44	=44	=44	=44	=44	=44
[1BB-)	.	.	4r	2ryy	.	.
.	.	.	(>4d-/ 4f	.	.	.
.	.	.	4en/ 4gn	2c\	.	.
.	.	.	4e-X/ 4an	.	.	.
=45	=45	=45	=45	=45	=45	=45
*^	*	*	*	*	*	*
2.ryy	4BB-\]	.	<	2.f/ 2.b-	2d-\	.	.
.	(8B-\L	.	.	.	.	.	.
.	8A-\J	.	.	.	.	.	.
.	4Gn\	.	.	.	4ryy	.	.
4c/	4G-X\	.	.	8cc/L	4en\	.	.
.	.	.	.	8b-/J)	.	.	.
!!LO:LB:g=original	!	!	!	!	!	!	!
=46	=46	=46	=46	=46	=46	=46	=46
*xywh-13:241,2044,5320,828	*xywh-13:241,2044,5320,828	*	*	*xywh-13:241,2044,5320,828	*xywh-13:241,2044,5320,828	*	*
[1B-	4F\	.	.	(2.dd-/	4f\	.	.
.	4En\	.	.	.	4g-\	.	.
.	4F\	.	.	.	4f\	.	.
.	(4G-\	.	.	8cc/L	4en\	.	.
.	.	.	.	8b-/J	.	.	.
=47	=47	=47	=47	=47	=47	=47	=47
1B-]	4Gn\)	.	.	2.dd-/	4e-X\	.	.
.	8A-\L	.	.	.	4en\	.	.
.	8G-X\J	.	.	.	.	.	.
.	4F\	.	.	.	4f\	.	.
.	4En\	.	.	8cc/L	4g-\	.	.
.	.	.	[	8b-/J	.	.	.
=48	=48	=48	=48	=48	=48	=48	=48
4B-/	1F	.	>	4dd-/	4f\	.	.
2d-/	.	.	.	8cc/L	2en\	.	.
.	.	.	.	8b-/J	.	.	.
.	.	.	.	4gn/	.	.	.
4c/)	.	.	]	4an/)	[4e-X\	.	.
*v	*v	*	*	*	*	*	*
*	*	*	*v	*v	*	*
=49||	=49||	=49||	=49||	=49||	=49||
*k[b-e-]	*	*	*k[b-e-]	*	*
*^	*	*	*^	*	*
!	!	!	!	!LO:TX:b:i:t=dolce	!	!	!
([1B-	2BB-\	.	.	1b-	4e-\]	5-4	.
.	.	.	.	.	8d\L	.	.
.	.	.	.	.	8c\J	2	.
.	2G\	.	.	.	8d\L	1	.
.	.	.	.	.	8f\	3	.
.	.	.	.	.	8e-\	2	.
.	.	.	.	.	8d\J	1	.
=50	=50	=50	=50	=50	=50	=50	=50
4B-/]	4En\	.	.	4.cc/	2.c\	1 5	.
2A/	4F\	.	.	.	.	.	.
.	.	.	.	8a/	.	4	.
.	4AA\	.	.	2f/	.	3	.
4A-X/)	4BBn\	.	.	.	4d\	2	.
=51	=51	=51	=51	=51	=51	=51	=51
(2G/	2C\	2-3	.	(4e-/	[2e-\	.	.
.	.	.	.	8ee-/L	.	5	.
.	.	.	.	8dd/J	.	5	.
[2c/	2A-X\	.	.	2cc/	8e-\L]	4	.
.	.	.	.	.	8g\	2	.
.	.	.	.	.	8f\	1	.
.	.	.	.	.	8e-\J	2	.
=52	=52	=52	=52	=52	=52	=52	=52
4c/]	4F#X\	.	.	4.dd/	2.d\	.	.
2Bn/	4G\	.	.	.	.	.	.
.	.	.	.	8bn/	.	.	.
.	4BBn\	.	.	2g/	.	.	.
4B-X/)	4C#X\	4	.	.	4en\)	.	.
=53	=53	=53	=53	=53	=53	=53	=53
2A/	2D\	5 1-3	.	(4f/	[2f\	.	.
.	.	.	.	8ff/L	.	5	.
.	.	.	.	8een/J	.	4	.
[2d/	2B-\	.	.	2dd/	8f\L]	5	.
.	.	.	.	.	8a-X\	3	.
.	.	.	.	.	8g\	2	.
.	.	.	.	.	8f\J)	1	.
!!LO:LB:g=original	!	!	!	!	!	!	!
=54	=54	=54	=54	=54	=54	=54	=54
*xywh-13:208,2755,5493,1674	*xywh-13:208,2755,5493,1674	*	*	*xywh-13:208,2755,5493,1674	*xywh-13:208,2755,5493,1674	*	*
(4d/]	4G\	.	.	4.ee-/	2.e-\	4-5	.
[4c/	4A-X\	.	.	.	.	.	.
.	.	.	.	8cc/	.	4	.
8c/L]	4C\	5	<	8a-X/L	.	3	.
8B-/	.	2	.	8g/	.	4	.
8An/	4D\	5 2	.	8f#X/	[4d\	3	.
8c/J	.	1	.	8an/J	.	5	.
=55	=55	=55	=55	=55	=55	=55	=55
2B-/	4G\	3 2	.	4b-/	4d\]	4	.
.	4En\	5	.	8a/L	4d-X\	2 5	.
.	.	.	.	8g/J	.	4	.
4A/	4F\	3 1	.	2f/	4c\	3-4	.
4A-X/	4BBn\	5 2	[	.	[4dn\	2	.
=56	=56	=56	=56	=56	=56	=56	=56
4G/	2C\	4-3 1	>	2e-/	4d\]	3	.
4G-X/	.	2	.	.	8c\L	.	.
.	.	.	.	.	8B-\J	1	.
4F/	2FF\	1	]	4.d/	2A\	4	.
4E-/	.	.	.	.	.	.	.
.	.	.	.	8c/	.	3	.
=57	=57	=57	=57	=57	=57	=57	=57
8D/L)	[1BB-	4-5 1	.	4B-/	4B-\	.	.
(8F/	.	1	.	.	.	.	.
8G-X/	.	.	.	4r	4ryy	.	.
8F/J)	.	.	.	.	.	.	.
!	!	!	!	!LO:TX:a:i:t=5.) jak przy 3. / Wie bei 3.	!	!	!
8r	.	.	.	(2cc-X/	2e-\	2 5	.
(8G-/L	.	2	.	.	.	.	.
8A-X/	.	.	.	.	.	.	.
8G-/J)	.	.	.	.	.	.	.
=58	=58	=58	=58	=58	=58	=58	=58
8r	2BB-\]	.	.	2b-/	2d\	1 4	<
(8F/L	.	1	.	.	.	.	.
8G-X/	.	2	.	.	.	.	.
8En/J	.	3	.	.	.	.	.
2F/)	8r	1	.	2a/	2e-\	2 5	.
.	(8C-X\L	4	.	.	.	.	.
.	8D-X\	.	.	.	.	.	.
.	8C-\J)	.	.	.	.	.	.
=59	=59	=59	=59	=59	=59	=59	=59
8r	[1BB-	.	.	4b-/)	4d\	.	.
(8F/L	.	.	.	.	.	.	.
8G-X/	.	.	.	(4a/	4e-\	1 4	.
8F/J)	.	.	.	.	.	.	.
8r	.	.	.	4a-X/	4d\	.	.
(8B-/L	.	.	.	.	.	.	.
8c-X/	.	.	.	4g-X/	4e-\	2 3	[
8B-/J)	.	.	.	.	.	.	.
=60	=60	=60	=60	=60	=60	=60	=60
8r	1BB-_	.	.	4f/	4An\	1 5	.
(8C/L	.	4	.	.	.	.	.
8D-X/	.	3	.	4en/	4B-\	2 4	.
8C/J	.	4	.	.	.	.	.
4G-X/	.	2	.	4.e-X/	2A\	1 3	.
[4F/	.	1	.	.	.	.	.
.	.	.	.	8dn/	.	4	.
=61	=61	=61	=61	=61	=61	=61	=61
2.F/])	4BB-\]	.	.	2.d/)	2.B-\	2 3	.
.	4r	.	.	.	.	.	.
.	[2BBB-/ [2BB-	.	.	.	.	.	.
4r	.	.	.	4r	4r	.	pp
*	*	*	*	*v	*v	*	*
=62	=62	=62	=62	=62	=62	=62
1BB-]	1BBB-]	.	.	1F 1B- 1d	1 2 5	<
.	.	.	.	.	.	[[
.	.	.	.	.	.	>
.	.	.	.	.	.	]]
*v	*v	*	*	*	*	*
==	==	==	==	==	==
*-	*-	*-	*-	*-	*-
!!!system-decoration: {(s1,s2)}
!!!RDF**kern: > = above
!!!RDF**kern: < = below
!!!ENC: Andrzej Gręziak
!!!END: 2022-03-12
!!!ENC: Jan Barakat
!!!END: 2022-03-17
!!!YEC: Copyright 2022 Narodowy Instytut Fryderyka Chopina (https://polishscores.org)
!!!YEM: License CC-BY-4.0 (https://creativecommons.org/licenses/by/4.0)
!!!IIIF: https://polona.pl/iiif/item/ODE1NjEwNDA/manifest.json
!!!ENC-iiif: Natalia Wrzos
!!!END-iiif: 2022-08-29
